public/icons/facebook.svg

<svg width="43" height="43" viewBox="0 0 43 43" fill="none" xmlns="http://www.w3.org/2000/svg">
<path d="M32.25 11.2876H26.8634C25.8905 11.2876 25.1013 12.0759 25.1013 13.0497V19.2309H32.25L31.2028 26.0366H25.1021V38.5209H17.2403V26.0366H10.75V19.2309H17.1561L17.2403 12.772L17.2287 11.5984C17.2196 10.667 17.3951 9.74305 17.7452 8.87987C18.0952 8.0167 18.6128 7.23145 19.2681 6.56949C19.9234 5.90753 20.7034 5.38198 21.563 5.02321C22.4226 4.66444 23.3447 4.47956 24.2762 4.47925H32.25V11.2876Z" stroke="#FAFAFA" stroke-width="1.9" stroke-linejoin="round"/>
</svg>

<svg xmlns="http://www.w3.org/2000/svg" width="43" height="43" fill="none"><path stroke="#fafafa" d="M32.3 11.3h-5.4q-1.7.2-1.8 1.7v6.2h7.1l-1 6.8h-6.1v12.5h-7.9V26h-6.4v-6.8h6.4v-7.6a7 7 0 017-7.1h8z"/></svg>
